X:1
T:Title
%%score { 1 | 2 }
L:1/8
Q:1/4=90
M:6/8
K:Bb
V:1 treble nm="Grand Piano"
V:2 bass 
V:1
 [DF][EG][DF] [B,D]2 [DF] | [DB]2 [EB] [DB]2 [FB] | c2 c cde |[M:5/8] d-d- d3 |[M:1/8] [DF] | %5
w: H.~R.~Christie * * * *|||||
[M:3/4] [Fd]2 [Fd] [Ge]2 [Fd] | [Fc]2 [FB] [FA]2 G | F2 B B2 A |[M:5/8] [DFB]-[DFB]- [DFB]3 | %9
w: ||||
[M:1/8] [B,DB] |[M:3/4] c2 c c2 c | d2 c B2 F | G[FA] [GB][Gc] [GB][EG] | [DF]6 | %14
w: |||||
 [DF][EG] [DF] [B,D]2 [DF] | [DB]2 [EB] [DB]2 [DFB] | [CGc][Gd] [Ge]d Bc | [DB]6 |] %18
w: ||||
V:2
 [B,,B,][B,,B,][B,,B,] [B,,F,]2 [B,,B,] | [B,,F,]2 [B,,G,] [B,,F,]2 [D,B,] | %2
 [F,A,F]2 [F,A,F] [F,A,F][F,B,F][F,DF] |[M:5/8] [B,F]-[B,F]- [B,F]3 |[M:1/8][K:bass] [B,,B,] | %5
[M:3/4] [B,,B,]2 [B,,B,] [B,,B,]2 [B,,B,] | [C,A,]2 [D,B,] [E,B,]2 [E,B,E] | %7
 [F,B,D]2 [F,DF] [F,DF]2 [F,CF] |[M:5/8] B,,-B,,- B,,3 |[M:1/8] B,, | %10
[M:3/4][K:treble] [F,A,F]2 [F,A,F] [F,A,F]2 [F,A,F] | [B,F]2[K:bass] [F,A,E] [G,B,D]2 [D,B,] | %12
 [E,B,E][E,B,] [E,B,][E,B,] [E,B,][E,B,] | [B,,B,]6 | [B,,B,][B,,B,] [B,,B,] [B,,F,]2 [B,,B,] | %15
 [B,,F,]2 [B,,G,] [B,,F,]2 B,, | E,[D,=B,] [C,C][F,B,F] [F,B,D][F,A,E] | [B,,B,]6 |] %18

